dist/svg/user-close-o.svg

<svg width="16" height="16" viewBox="0 0 16 16" fill="rgb(34, 34, 34)" xmlns="http://www.w3.org/2000/svg"><title>user-close-o</title><path d="M15.834 14.834L16 15L15 16L12 13L9 16L8 15L11 12L8 8.99998L9 7.99998L12 11L15 7.99998L16 8.99998L13 12L14.986 13.986L15.834 14.834ZM2 14C1.296 14 1.099 13.723 1.061 13.632C0.773004 12.955 1.503 11.375 2.656 10.181C3.544 9.18398 4.722 8.46498 6.058 8.15398L6.102 8.14498L6.5 8.06298V6.83498L6.216 6.69898C5.183 6.20798 4.482 5.17198 4.482 3.97298C4.482 2.31098 5.829 0.963977 7.491 0.963977C9.153 0.963977 10.5 2.31098 10.5 3.97298C10.5 5.09198 9.889 6.06898 8.98201 6.58698L8.967 6.59498L8.981 6.60398L9.707 7.29298L9.723 7.30898C10.8 6.59198 11.5 5.38198 11.5 4.00998C11.5 4.00698 11.5 4.00398 11.5 3.99998C11.5 1.79098 9.709 0.000976562 7.5 0.000976562C5.291 0.000976562 3.5 1.79198 3.5 4.00098C3.5 4.00498 3.5 4.00998 3.5 4.01498C3.5 5.39298 4.205 6.60598 5.274 7.31398L5.289 7.32298C3.956 7.76098 2.826 8.50798 1.941 9.48298L1.935 9.48898C0.651004 10.82 -0.377996 12.805 0.139004 14.024C0.456004 14.618 1.071 15.015 1.779 15.015C1.857 15.015 1.933 15.01 2.009 15.001L2 15.002H7V14.002L2 14Z" fill="rgb(34, 34, 34)" fill-opacity="1.00"/></svg>

<!-- Generated by Trend Micro Style Portal -->
<svg version="1.1" xmlns="http://www.w3.org/2000/svg" width="16" height="16" viewBox="0 0 16 16">
  <title>user-close-o</title>
  <path fill="rgb(34,34,34)" d="M15.834 14.834l0.166 0.166-1 1-3-3-3 3-1-1 3-3-3-3 1-1 3 3 3-3 1 1-3 3 1.986 1.986zM2 14c-0.704 0-0.901-0.277-0.939-0.368-0.288-0.677 0.442-2.257 1.595-3.451 0.888-0.997 2.066-1.716 3.402-2.027l0.044-0.009 0.398-0.082v-1.228l-0.284-0.136c-1.033-0.491-1.734-1.527-1.734-2.726 0-1.662 1.347-3.009 3.009-3.009s3.009 1.347 3.009 3.009c0 1.119-0.611 2.096-1.518 2.614l-0.015 0.008 0.014 0.009 0.726 0.689 0.016 0.016c1.077-0.717 1.777-1.927 1.777-3.299 0-0.003 0-0.006-0-0.010v0.001c0-2.209-1.791-4-4-4s-4 1.791-4 4v0c-0 0.004-0 0.009-0 0.014 0 1.378 0.705 2.591 1.774 3.299l0.015 0.009c-1.333 0.438-2.463 1.185-3.348 2.16l-0.006 0.006c-1.284 1.331-2.313 3.316-1.796 4.535 0.317 0.594 0.932 0.991 1.64 0.991 0.078 0 0.154-0.005 0.23-0.014l-0.009 0.001h5v-1z"></path>
</svg>
